X: 167
T: No_28_Cypress_Swamp_Hunting_Dance_Song_(c).krn
N: Derived from No_28_Cypress_Swamp_Hunting_Dance_Song_(c).krn
%%abc-version 2.0
%%abcx-abcm2ps-target-version 5.9.1 (29 Sep 2008)
%%abc-creator hum2abc beta
%%abcx-conversion-date 2019/03/15 08:38:45
%%humdrum-veritas 4138682181
%%humdrum-veritas-data 833079726
%%linebreak <none>
%%barnumbers 0
L: 1/8
M: 2/4
K: F clef=bass
[K:clef=bass][M:2/4]C2C3/C/ ||  
[M:3/4]D2C2A,3/G,/ ||  
[M:2/4]F,4 | 
C,2C, z | 
F,2F,3/F,/ | 
F,3/C/ (3CG,F, | 
F,4 | 
C,2C, z | 
B,3/A,/ G,3/G,/ | 
G,2G,2 ||  
[M:3/4]G,2F,2(3:2:4C,C,A,,/ z/ | 
G,2F,2(3:2:4C,C,A,,/ z/ ||  
[M:2/4]F,C,F,2 | 
F,2z2 ||  
[M:3/4]F,C,F,2F,2 | 
(3B,G,F, G,F,F,2 ||  
[M:2/4]G,F,F,2 ||  
[M:3/4](3B,G,F, G,F, F, z ||  
[M:2/4]F,F,F,2 | 
C,C,C,2 | 
F,F, F, z | 
F,F,F,2 |]  



